X:1
T:Title
L:1/8
Q:1/4=100
M:4/4
K:F
V:1 treble nm="Church Organ, Staff"
V:1
 F4 ABAG | F2 A2 cdcB | A2 d2 c2 B2 | A2 G2 F4- | F2 G2 ABAG | F2 G2 A2 d2 | c2 =B2 c4- | %7
w: By~R.R.~Chope~~Cornish~Melody * * * *|||||||
 c2 AB c2 c2 | c2 A2 B2 B2 | B2 G2 A2 A2 | A2 F2 G2 G2 | G2 C2 F2 G2 | A2 B2 c4- | c2 A2 B2 c2 | %14
w: |||||||
 d2 e2 f4- | f2 c2 d4 | c4 B2 AG | A2 B2 A4 | G4 F4 |] %19
w: |||||

